res/skins/LateNight/palemoon/sliders/knob_pitch_sampler.svg

<?xml version="1.0" encoding="UTF-8" standalone="no"?>
<svg
   xmlns:dc="http://purl.org/dc/elements/1.1/"
   xmlns:cc="http://creativecommons.org/ns#"
   xmlns:rdf="http://www.w3.org/1999/02/22-rdf-syntax-ns#"
   xmlns:svg="http://www.w3.org/2000/svg"
   xmlns="http://www.w3.org/2000/svg"
   width="30"
   height="13"
   version="1.1"
   id="svg22">
  <metadata
     id="metadata28">
    <rdf:RDF>
      <cc:Work
         rdf:about="">
        <dc:format>image/svg+xml</dc:format>
        <dc:type
           rdf:resource="http://purl.org/dc/dcmitype/StillImage" />
        <dc:title></dc:title>
      </cc:Work>
    </rdf:RDF>
  </metadata>
  <defs
     id="defs26" />
  <path
     d="m 4.2936251,11.183522 c 0.5042904,0.41324 1.0752284,0.816575 2.2053571,0.816565 L 23.897874,12 c 2.101752,-1.1e-5 3.101864,-1.652533 3.101752,-2.99965 L 26.999376,6 C 26.999328,5.42619 26.80088,4.7078645 26.419053,4.2223066 27.281613,4.7480866 27.499785,5.91145 27.499876,6.99965 L 27.500126,10 c 1.38e-4,1.662 -1.338,2.999992 -3,3 l -17.644001,8.7e-5 c -1.0882,10e-6 -2.2715901,-0.138071 -2.5624999,-1.816565 z"
     color="#000000"
     opacity="0.5"
     id="path2" />
  <path
     d="m 3.3553751,6.0004375 2.5e-4,3.00035 C 3.3557636,10.662787 4.693625,12.000796 6.355625,12.000788 l 17.644001,-8.8e-5 c 1.662,-8e-6 3.000138,-1.338 3,-3 l -2.5e-4,-3.00035 c -1.38e-4,-1.662 -1.338,-3.0000082 -3,-3 l -17.644001,8.75e-5 c -1.662,8.2e-6 -3.0001384,1.338 -2.9999999,3 z"
     color="#000000"
     opacity="0.8"
     id="path4" />
  <path
     style="fill:#2a2a2a;fill-opacity:1;stroke:none;stroke-width:1.6;stroke-linejoin:round;stroke-miterlimit:4;stroke-dasharray:none;stroke-opacity:1"
     d="M 4.999875,1.9999125 25,2 c 1.108,4.8e-6 2,0.892 2,2 v 2 c 0,1.108 -0.892,2.0000048 -2,2 L 4.999875,7.9999125 c -1.108,-4.8e-6 -2,-0.892 -2,-2 v -2 c 0,-1.108 0.892,-2.0000048 2,-2 z"
     id="rect1700-1" />
  <path
     style="fill:#050505;fill-opacity:1;stroke:none;stroke-width:1.6;stroke-linejoin:round;stroke-miterlimit:4;stroke-dasharray:none;stroke-opacity:1"
     d="M 4.999875,4.9999125 25,5 c 1.108,4.8e-6 2,0.892 2,2 v 2 c 0,1.108 -0.892,2.000005 -2,2 l -20.000125,-8.7e-5 c -1.108,-5e-6 -2,-0.892 -2,-2.0000005 v -2 c 0,-1.108 0.892,-2.0000048 2,-2 z"
     id="rect1700" />
  <path
     style="fill:#1a1a1a;fill-opacity:1;stroke:none;stroke-width:1.6;stroke-linejoin:round;stroke-miterlimit:4;stroke-dasharray:none;stroke-opacity:1"
     d="m 27,8 c 0,1.108 -0.446,2.000002 -1,2 L 3.999875,9.9999125 c -0.554,-2.2e-6 -1,-0.892 -1,-2 z"
     id="rect1698" />
  <path
     id="rect1022-35-3"
     d="M 3.999875,5.0002348 26,5.0003223 V 6.000322 L 3.999875,6.0002345 Z"
     style="fill:#323232;fill-opacity:1;stroke:none;stroke-width:1.6;stroke-linejoin:round;stroke-miterlimit:4;stroke-dasharray:none;stroke-opacity:1" />
  <path
     id="rect1022-6-6-6"
     d="M 3.999875,7.0002345 26,7.000322 v 1 L 3.999875,8.0002345 Z"
     style="fill:#5f5f5f;fill-opacity:1;stroke:none;stroke-width:1.6;stroke-linejoin:round;stroke-miterlimit:4;stroke-dasharray:none;stroke-opacity:1" />
  <path
     id="rect1022-7-2-7"
     d="M 3.999875,6.0002345 26,6.000322 v 1 L 3.999875,7.0002345 Z"
     style="fill:#51504f;fill-opacity:1;stroke:none;stroke-width:1.6;stroke-linejoin:round;stroke-miterlimit:4;stroke-dasharray:none;stroke-opacity:1" />
  <path
     id="rect1022-3-5-9-2-5"
     d="m 27,5.000322 h -1 v 1 h 1 z"
     style="fill:#212121;fill-opacity:1;stroke:none;stroke-width:1.6;stroke-linejoin:round;stroke-miterlimit:4;stroke-dasharray:none;stroke-opacity:1" />
  <path
     id="rect1022-6-6-3-7-9-3"
     d="m 27,7.000322 h -1 v 1 h 1 z"
     style="fill:#464646;fill-opacity:1;stroke:none;stroke-width:1.6;stroke-linejoin:round;stroke-miterlimit:4;stroke-dasharray:none;stroke-opacity:1" />
  <path
     id="rect1022-7-7-5-3-3-5"
     d="m 27,6.000322 h -1 v 1 h 1 z"
     style="fill:#323232;fill-opacity:1;stroke:none;stroke-width:1.6;stroke-linejoin:round;stroke-miterlimit:4;stroke-dasharray:none;stroke-opacity:1" />
  <path
     id="rect1022-6-6-2-6-9-6"
     d="m 3.999875,6.9999122 h -1 v 1.0000003 h 1 z"
     style="fill:#706f6e;fill-opacity:1;stroke:none;stroke-width:1.6;stroke-linejoin:round;stroke-miterlimit:4;stroke-dasharray:none;stroke-opacity:1" />
  <path
     id="rect1022-7-7-8-1-1-2"
     d="m 3.999875,5.9999122 h -1 v 1 h 1 z"
     style="fill:#5e5e5e;fill-opacity:1;stroke:none;stroke-width:1.6;stroke-linejoin:round;stroke-miterlimit:4;stroke-dasharray:none;stroke-opacity:1" />
  <path
     id="rect1022-3-27-9"
     style="fill:#3e3e3e;fill-opacity:1;stroke:none;stroke-width:0.274343;stroke-linejoin:round;stroke-miterlimit:4;stroke-dasharray:none;stroke-opacity:1"
     d="M 3.0002755,5.0002344 H 3.999875 v 1 H 3.0002755 Z" />
  <path
     style="fill:#141414;fill-opacity:1;stroke:none;stroke-width:1.6;stroke-linejoin:round;stroke-miterlimit:4;stroke-dasharray:none;stroke-opacity:1"
     d="M 3.999875,2.9999125 26,3 c 0.554,2.2e-6 1,0.892 1,2 L 2.999875,4.9999125 c 0,-1.108 0.446,-2.0000022 1,-2 z"
     id="rect1698-7" />
  <g
     id="g854-3"
     transform="translate(-40)">
    <path
       id="rect1022-35-3-6"
       d="M 3,5.0003223 H 27 V 6.000322 H 3 Z"
       style="opacity:1;fill:#561e0e;fill-opacity:1;stroke:none;stroke-width:1.6;stroke-linejoin:round;stroke-miterlimit:4;stroke-dasharray:none;stroke-opacity:1" />
    <path
       id="rect1022-6-6-6-7"
       d="m 3,7.000322 h 24 v 1 H 3 Z"
       style="opacity:1;fill:#a74a17;fill-opacity:1;stroke:none;stroke-width:1.6;stroke-linejoin:round;stroke-miterlimit:4;stroke-dasharray:none;stroke-opacity:1" />
    <path
       id="rect1022-7-2-7-5"
       d="m 3,6.000322 h 24 v 1 H 3 Z"
       style="opacity:1;fill:#8d3b13;fill-opacity:1;stroke:none;stroke-width:1.6;stroke-linejoin:round;stroke-miterlimit:4;stroke-dasharray:none;stroke-opacity:1" />
    <path
       id="rect1022-3-5-9-2-5-3"
       d="m 28,5.000322 h -1 v 1 h 1 z"
       style="opacity:1;fill:#37110b;fill-opacity:1;stroke:none;stroke-width:1.6;stroke-linejoin:round;stroke-miterlimit:4;stroke-dasharray:none;stroke-opacity:1" />
    <path
       id="rect1022-6-6-3-7-9-3-5"
       d="m 28,7.000322 h -1 v 1 h 1 z"
       style="opacity:1;fill:#7a3612;fill-opacity:1;stroke:none;stroke-width:1.6;stroke-linejoin:round;stroke-miterlimit:4;stroke-dasharray:none;stroke-opacity:1" />
    <path
       id="rect1022-7-7-5-3-3-5-6"
       d="m 28,6.000322 h -1 v 1 h 1 z"
       style="opacity:1;fill:#57240d;fill-opacity:1;stroke:none;stroke-width:1.6;stroke-linejoin:round;stroke-miterlimit:4;stroke-dasharray:none;stroke-opacity:1" />
    <path
       id="rect1022-6-6-2-6-9-6-2"
       d="M 3,6.9999997 H 2 V 8 h 1 z"
       style="opacity:1;fill:#b35115;fill-opacity:1;stroke:none;stroke-width:1.6;stroke-linejoin:round;stroke-miterlimit:4;stroke-dasharray:none;stroke-opacity:1" />
    <path
       id="rect1022-7-7-8-1-1-2-9"
       d="M 3,5.9999997 H 2 v 1 h 1 z"
       style="opacity:1;fill:#994311;fill-opacity:1;stroke:none;stroke-width:1.6;stroke-linejoin:round;stroke-miterlimit:4;stroke-dasharray:none;stroke-opacity:1" />
    <path
       id="rect1022-3-27-9-1"
       style="opacity:1;fill:#61230d;fill-opacity:1;stroke:none;stroke-width:0.274343;stroke-linejoin:round;stroke-miterlimit:4;stroke-dasharray:none;stroke-opacity:1"
       d="M 2.0004005,5.0003219 H 3 v 1 H 2.0004005 Z" />
  </g>
</svg>

<svg width="30" height="13" version="1.1" xmlns="http://www.w3.org/2000/svg">
  <path d="m4.29363 11.1835c0.50429 0.41324 1.07523 0.816575 2.20536 0.816565l17.3989-8.7e-5c2.10175-1.1e-5 3.10186-1.65253 3.10175-2.99965l-2.5e-4 -3.00035c-4.8e-5 -0.57381-0.198496-1.29214-0.580323-1.77769 0.86256 0.52578 1.08073 1.68914 1.08082 2.77734l2.5e-4 3.00035c1.38e-4 1.662-1.338 2.99999-3 3l-17.644 8.7e-5c-1.0882 1e-5 -2.27159-0.138071-2.5625-1.81656z" color="#000000" opacity=".5"/>
  <path d="m3.35538 6.00044 2.5e-4 3.00035c1.385e-4 1.662 1.338 3.00001 3 3l17.644-8.8e-5c1.662-8e-6 3.00014-1.338 3-3l-2.5e-4 -3.00035c-1.38e-4 -1.662-1.338-3.00001-3-3l-17.644 8.75e-5c-1.662 8.2e-6 -3.00014 1.338-3 3z" color="#000000" opacity=".8"/>
  <path d="m4.99988 1.99991 20.0001 8.75e-5c1.108 4.8e-6 2 0.892 2 2v2c0 1.108-0.892 2-2 2l-20.0001-8.75e-5c-1.108-4.8e-6 -2-0.892-2-2v-2c0-1.108 0.892-2 2-2z" fill="#2a2a2a"/>
  <path d="m4.99988 4.99991 20.0001 8.75e-5c1.108 4.8e-6 2 0.892 2 2v2c0 1.108-0.892 2-2 2l-20.0001-8.7e-5c-1.108-5e-6 -2-0.892-2-2v-2c0-1.108 0.892-2 2-2z" fill="#050505"/>
  <path d="m27 8c0 1.108-0.446 2-1 2l-22.0001-8.75e-5c-0.554-2.2e-6 -1-0.892-1-2z" fill="#1a1a1a"/>
  <path d="m3.99988 5.00023 22.0001 8.75e-5v1l-22.0001-8.75e-5z" fill="#323232"/>
  <path d="m3.99988 7.00023 22.0001 8.75e-5v1l-22.0001-8.75e-5z" fill="#5f5f5f"/>
  <path d="m3.99988 6.00023 22.0001 8.75e-5v1l-22.0001-8.75e-5z" fill="#51504f"/>
  <path d="m27 5.00032h-1v1h1z" fill="#212121"/>
  <path d="m27 7.00032h-1v1h1z" fill="#464646"/>
  <path d="m27 6.00032h-1v1h1z" fill="#323232"/>
  <path d="m3.99988 6.99991h-1v1h1z" fill="#706f6e"/>
  <path d="m3.99988 5.99991h-1v1h1z" fill="#5e5e5e"/>
  <path d="m3.00028 5.00023h0.9996v1h-0.9996z" fill="#3e3e3e"/>
  <path d="m3.99988 2.99991 22.0001 8.75e-5c0.554 2.2e-6 1 0.892 1 2l-24.0001-8.75e-5c0-1.108 0.446-2 1-2z" fill="#141414"/>
  <g transform="translate(-40)">
    <path d="m3 5.00032h24v1h-24z" fill="#561e0e"/>
    <path d="m3 7.00032h24v1h-24z" fill="#a74a17"/>
    <path d="m3 6.00032h24v1h-24z" fill="#8d3b13"/>
    <path d="m28 5.00032h-1v1h1z" fill="#37110b"/>
    <path d="m28 7.00032h-1v1h1z" fill="#7a3612"/>
    <path d="m28 6.00032h-1v1h1z" fill="#57240d"/>
    <path d="m3 7h-1v1h1z" fill="#b35115"/>
    <path d="m3 6h-1v1h1z" fill="#994311"/>
    <path d="m2.0004 5.00032h0.9996v1h-0.9996z" fill="#61230d"/>
  </g>
</svg>
